!!!OTL: 7. Dobranoch
!!!Genre:	Dobranoch
!!!Mode:	Minor
!!!Listening/dance:	listening
!!!One_Mode:	no
!!!Orig_tonic: G
**kern
*thru
*I"P1
*clefG2
*k[b-e-]
*B-:
!LO:TX:a:i:t=Bb-major
24fLL
24g
24aJJ
=17
4b-
4f
8b-L
8ccJ
=18
4dd
4b-
8ddL
8ee-J
=19
4ff
4dd
12bb-L
12aa
12ggJ
=20
2ff
4dd
!!!End-Modulation
*B-:
!LO:TX:a:i:t=Bb-major
=25
4cc
4cc
4cc
=26
(8ccL
16ddL
16ccJJ)
4b-
4cc
=27
4dd
4dd
4dd
=28
(8ddL
16ee-L
16ddJJ)
4cc
4dd
=29
(8ee-L
16ffL
16ee-JJ)
4dd
4ee-
=30
4gg
4ff
4ee-
=31
4.dd
8b-
8ccL
8aJ
=32
2b-
4r
*>C
!!!End-Modulation
*-
